fs/arrow_curve_up_right_20_regular.svg

<svg viewBox="0 0 20 20" fill="none" xmlns="http://www.w3.org/2000/svg" height="1em" width="1em">
  <path d="M14.1464 6.85355C14.3417 7.04882 14.6583 7.04882 14.8536 6.85355C15.0488 6.65829 15.0488 6.34171 14.8536 6.14645L10.8536 2.14645C10.6583 1.95118 10.3417 1.95118 10.1464 2.14645L6.14645 6.14645C5.95118 6.34171 5.95118 6.65829 6.14645 6.85355C6.34171 7.04882 6.65829 7.04882 6.85355 6.85355L10 3.70711L10 9.99999C10 11.9648 9.75319 13.3808 9.23563 14.4734C8.72437 15.5528 7.92808 16.36 6.74275 17.0712C6.50596 17.2133 6.42918 17.5204 6.57125 17.7572C6.71333 17.994 7.02046 18.0708 7.25725 17.9287C8.57192 17.1399 9.52563 16.1972 10.1394 14.9015C10.7468 13.6192 11 12.0351 11 9.99999L11 3.7071L14.1464 6.85355Z" fill="#212121"/>
</svg>

<svg viewBox="0 0 20 20" fill="none" xmlns="http://www.w3.org/2000/svg" height="1em" width="1em">
  <path d="M14.146 6.854a.5.5 0 0 0 .708-.708l-4-4a.5.5 0 0 0-.708 0l-4 4a.5.5 0 1 0 .708.708L10 3.707V10c0 1.965-.247 3.38-.764 4.473-.512 1.08-1.308 1.887-2.493 2.598a.5.5 0 0 0 .514.858c1.315-.79 2.269-1.732 2.882-3.027.608-1.283.861-2.867.861-4.902V3.707l3.146 3.147Z" fill="#212121"/>
</svg>
